X: 114
T: Schellen-Neuner [Bb]
R: zwiefacher
M: 34/44
L: 1/8
K: Bb
   [BD][cF] \
| "Bb"[d2B2][B2F2] [d4B4] | [f2d2][d2B2] [f4d4] \
| "F7"[e2c2] [Ac][ge] [fd][ec] | "Bb"[dB][ec] [dB][cA] [BG][cA] \
"I"\
| "Bb"[d2B2][B2F2] [d4B4] | [f2d2][d2B2] [f4d4] \
| "F7"[ec][dB] [cA][BG] [AF][cA] | "Bb"[B2B2] z2 :|
|: [BF][dB] \
| "Bb"[f2d2][d2B2] [f4d4] | "F7"[e2c2][c2A2] [e4c4] \
| "Bb"[d2B2][B2F2] [d4B4] | "F7"[c2A2][A2F2] [c4A4] \
| "Bb"[d2B2][B2F2] [d4B4] | [f2d2][d2B2] [f4d4] \
|1"F7"[ec][dB] [cA][BG] [AF][cE] | "Bb"[B2D2] z2 \
:|2 "F7"[ge][fd] [=e^c][fd] [_e=c][cA] | "Bb"[B2B2] z2 :|
%%sep 2 1 500
